img/logo/anna-jennings-logo.svg

<?xml version="1.0" encoding="UTF-8"?><svg id="Layer_1" xmlns="http://www.w3.org/2000/svg" viewBox="0 0 512.9 76.2"><path d="M22.2,16.6h1.9l21.2,44.6h-11.4l-2.2-4.5H14.6l-2.1,4.5H1.2L22.2,16.6ZM10.7,59.2l4.7-10h-5.8l-4.8,10h5.9Zm17.4-10l-5-10.9h-.1l-5,10.9h10.2Zm7.5,10h6l-4.8-10h-5.8l4.6,10Z" style="fill:#262262;"/><path d="M49.8,18h11.2l16.8,25.6V18h10.5V61.2h-11l-16.8-25.7v25.7h-10.6V18Zm7.9,41.2v-26.4l-5.3-8.3V59.2h5.3Zm27.9-4.8V20h-5.2v26.3l5.2,8.1Z" style="fill:#262262;"/><path d="M95.2,18h11.2l16.8,25.6V18h10.5V61.2h-11l-16.8-25.7v25.7h-10.6V18Zm7.9,41.2v-26.4l-5.3-8.3V59.2h5.3Zm27.9-4.8V20h-5.2v26.3l5.2,8.1Z" style="fill:#262262;"/><path d="M159.3,16.6h1.9l21.2,44.6h-11.4l-2.2-4.5h-17.1l-2.1,4.5h-11.4l21-44.6Zm-11.5,42.6l4.7-10h-5.8l-4.8,10h5.9Zm17.4-10l-5-10.9h-.1l-5,10.9h10.2Zm7.5,10h6l-4.8-10h-5.8l4.6,10Z" style="fill:#262262;"/><path d="M210.6,47.8c.5,3.1,1.7,5,5.1,5s5.6-1.4,5.6-6.7V18h10.4v30c0,9.1-7.1,14.6-15.6,14.6s-15.8-5.4-15.8-14.5l10.2-.4Zm18.5-12.7v-15.1h-5.1v15.1h5.1Z" style="fill:#262262;"/><path d="M238.7,18h28.6v9.4h-18v7.8h16.6v9.2h-16.6v7.8h18.8v9.1h-29.4V18Zm7.9,36.1V25.3l-5.3-5.3V59.2l5.3-5Z" style="fill:#262262;"/><path d="M273.2,18h11.2l16.8,25.6V18h10.5V61.2h-11l-16.8-25.7v25.7h-10.6V18Zm7.9,41.2v-26.4l-5.3-8.3V59.2h5.3Zm27.9-4.8V20h-5.2v26.3l5.2,8.1Z" style="fill:#262262;"/><path d="M318.5,18h11.2l16.8,25.6V18h10.5V61.2h-11l-16.8-25.7v25.7h-10.6V18Zm7.9,41.2v-26.4l-5.3-8.3V59.2h5.3Zm27.9-4.8V20h-5.2v26.3l5.2,8.1Z" style="fill:#262262;"/><path d="M363.9,18h10.6V61.2h-10.6V18Zm7.9,41.2v-15.4h-5.3v15.4h5.3Z" style="fill:#262262;"/><path d="M381.4,18h11.2l16.8,25.6V18h10.5V61.2h-11l-16.8-25.7v25.7h-10.6V18Zm7.9,41.2v-26.4l-5.3-8.3V59.2h5.3Zm27.9-4.8V20h-5.2v26.3l5.2,8.1Z" style="fill:#262262;"/><path d="M449.9,16.6c8,0,13.5,3,18.1,7.6l-7.3,6.8c-3-2.7-6.6-4.3-10.7-4.3-7.7,0-12.7,5.8-12.7,13s5.7,13,12.9,13,11.2-4.2,11.5-8.4h-12.3v-9.1h23.8v4.1c0,12.7-7.5,23.4-23.2,23.4s-23.4-10.2-23.4-23,9.7-23,23.4-23Zm-14.8,18.6c1.7-6.2,7.2-10.6,14.8-10.6s7.6,1.4,10.6,3.5l4.2-4c-3.7-3.5-8.6-5.4-14.8-5.4-10.5,0-18.4,7-20.3,16.6h5.5Z" style="fill:#262262;"/><path d="M490.1,48.5c0,2.5,2,4.5,4.5,4.5s4.3-1.5,4.3-3.7c0-3.2-4.2-4.2-7.8-5.4-7.3-2.6-11.3-6-11.3-13.4s6.6-14,14.7-14,14.1,6.1,14.7,14.1h-9.9c0-2.4-1.5-4.5-4.5-4.5s-4.5,1.4-4.5,4.2,4,3.8,7.6,4.9c7.7,2.3,11.3,6.6,11.3,13.4s-6.5,14-14.6,14-14.8-6.3-14.8-14.1h10.3Zm4.5,12.1v-5.5c-3.7,0-6-2.2-6.6-4.5h-5.6c.1,5.4,5.4,10.1,12.2,10.1Zm12-32c-.4-4.2-3.6-10.1-12-10.1v5.6c4.5,0,6,2.7,6.6,4.5h5.4Z" style="fill:#262262;"/></svg>

<?xml version="1.0" encoding="utf-8"?>
<!-- Generator: Adobe Illustrator 26.3.1, SVG Export Plug-In . SVG Version: 6.00 Build 0)  -->
<svg version="1.1" id="Layer_1" xmlns="http://www.w3.org/2000/svg" xmlns:xlink="http://www.w3.org/1999/xlink" x="0px" y="0px"
	 viewBox="0 0 512.9 76.2" style="enable-background:new 0 0 512.9 76.2;" xml:space="preserve">
<style type="text/css">
	.st0{fill:#FF9A26;}
</style>
<path class="st0" d="M22.2,16.6h1.9l21.2,44.6H33.9l-2.2-4.5H14.6l-2.1,4.5H1.2L22.2,16.6z M10.7,59.2l4.7-10H9.6l-4.8,10
	C4.8,59.2,10.7,59.2,10.7,59.2z M28.1,49.2l-5-10.9H23l-5,10.9L28.1,49.2L28.1,49.2z M35.6,59.2h6l-4.8-10H31L35.6,59.2z"/>
<path class="st0" d="M49.8,18H61l16.8,25.6V18h10.5v43.2h-11L60.5,35.5v25.7H49.9V18H49.8z M57.7,59.2V32.8l-5.3-8.3v34.7H57.7z
	 M85.6,54.4V20h-5.2v26.3L85.6,54.4z"/>
<path class="st0" d="M95.2,18h11.2l16.8,25.6V18h10.5v43.2h-11l-16.8-25.7v25.7H95.3L95.2,18L95.2,18z M103.1,59.2V32.8l-5.3-8.3
	v34.7H103.1z M131,54.4V20h-5.2v26.3L131,54.4z"/>
<path class="st0" d="M159.3,16.6h1.9l21.2,44.6H171l-2.2-4.5h-17.1l-2.1,4.5h-11.4l21-44.6L159.3,16.6z M147.8,59.2l4.7-10h-5.8
	l-4.8,10H147.8L147.8,59.2z M165.2,49.2l-5-10.9h-0.1l-5,10.9H165.2L165.2,49.2z M172.7,59.2h6l-4.8-10h-5.8L172.7,59.2z"/>
<path class="st0" d="M210.6,47.8c0.5,3.1,1.7,5,5.1,5s5.6-1.4,5.6-6.7V18h10.4v30c0,9.1-7.1,14.6-15.6,14.6s-15.8-5.4-15.8-14.5
	l10.2-0.4L210.6,47.8z M229.1,35.1V20H224v15.1H229.1z"/>
<path class="st0" d="M238.7,18h28.6v9.4h-18v7.8h16.6v9.2h-16.6v7.8h18.8v9.1h-29.4L238.7,18L238.7,18z M246.6,54.1V25.3l-5.3-5.3
	v39.2l5.3-5V54.1z"/>
<path class="st0" d="M273.2,18h11.2l16.8,25.6V18h10.5v43.2h-11l-16.8-25.7v25.7h-10.6V18H273.2z M281.1,59.2V32.8l-5.3-8.3v34.7
	H281.1z M309,54.4V20h-5.2v26.3L309,54.4z"/>
<path class="st0" d="M318.5,18h11.2l16.8,25.6V18H357v43.2h-11l-16.8-25.7v25.7h-10.6V18H318.5z M326.4,59.2V32.8l-5.3-8.3v34.7
	H326.4z M354.3,54.4V20h-5.2v26.3L354.3,54.4z"/>
<path class="st0" d="M363.9,18h10.6v43.2h-10.6V18z M371.8,59.2V43.8h-5.3v15.4C366.5,59.2,371.8,59.2,371.8,59.2z"/>
<path class="st0" d="M381.4,18h11.2l16.8,25.6V18h10.5v43.2h-11l-16.8-25.7v25.7h-10.6V18H381.4z M389.3,59.2V32.8l-5.3-8.3v34.7
	H389.3z M417.2,54.4V20H412v26.3L417.2,54.4z"/>
<path class="st0" d="M449.9,16.6c8,0,13.5,3,18.1,7.6l-7.3,6.8c-3-2.7-6.6-4.3-10.7-4.3c-7.7,0-12.7,5.8-12.7,13s5.7,13,12.9,13
	s11.2-4.2,11.5-8.4h-12.3v-9.1h23.8v4.1c0,12.7-7.5,23.4-23.2,23.4s-23.4-10.2-23.4-23s9.7-23,23.4-23L449.9,16.6z M435.1,35.2
	c1.7-6.2,7.2-10.6,14.8-10.6s7.6,1.4,10.6,3.5l4.2-4c-3.7-3.5-8.6-5.4-14.8-5.4c-10.5,0-18.4,7-20.3,16.6h5.5L435.1,35.2z"/>
<path class="st0" d="M490.1,48.5c0,2.5,2,4.5,4.5,4.5s4.3-1.5,4.3-3.7c0-3.2-4.2-4.2-7.8-5.4c-7.3-2.6-11.3-6-11.3-13.4
	s6.6-14,14.7-14s14.1,6.1,14.7,14.1h-9.9c0-2.4-1.5-4.5-4.5-4.5s-4.5,1.4-4.5,4.2s4,3.8,7.6,4.9c7.7,2.3,11.3,6.6,11.3,13.4
	s-6.5,14-14.6,14s-14.8-6.3-14.8-14.1H490.1L490.1,48.5z M494.6,60.6v-5.5c-3.7,0-6-2.2-6.6-4.5h-5.6
	C482.5,56,487.8,60.7,494.6,60.6L494.6,60.6z M506.6,28.6c-0.4-4.2-3.6-10.1-12-10.1v5.6c4.5,0,6,2.7,6.6,4.5H506.6z"/>
</svg>
